; HEADER_BLOCK_START
; generated by OrcaSlicer 2.4.0-dev on 2026-05-13 at 00:32:15
; total layer number: 174
; filament_density: 1.24,1.24,1.24,1.24,1.24,1.24,1.24
; filament_diameter: 1.75,1.75,1.75,1.75,1.75,1.75,1.75
; max_z_height: 35.05
; filament: 2,1
; HEADER_BLOCK_END

; THUMBNAIL_BLOCK_START

;
; THUMBNAIL_BLOCK_END

; THUMBNAIL_BLOCK_START

;
; THUMBNAIL_BLOCK_END

; external perimeters extrusion width = 0.42mm
; perimeters extrusion width = 0.45mm
; infill extrusion width = 0.45mm
; solid infill extrusion width = 0.42mm
; top infill extrusion width = 0.42mm
; first layer extrusion width = 0.50mm

; external perimeters extrusion width = 0.42mm
; perimeters extrusion width = 0.45mm
; infill extrusion width = 0.45mm
; solid infill extrusion width = 0.42mm
; top infill extrusion width = 0.42mm
; first layer extrusion width = 0.50mm

; EXECUTABLE_BLOCK_START
EXCLUDE_OBJECT_DEFINE NAME=calicat.drc_id_0_copy_0 CENTER=160.433,129.848 POLYGON=[[146.165,139.098],[154.701,115.598],[174.701,115.598],[174.701,136.598],[167.201,144.098],[146.165,144.098],[146.165,139.098]]
EXCLUDE_OBJECT_DEFINE NAME=calicat.drc_id_1_copy_0 CENTER=122.352,131.225 POLYGON=[[108.085,140.475],[116.62,116.975],[136.62,116.975],[136.62,137.975],[129.12,145.475],[108.085,145.475],[108.085,140.475]]
M73 P0 R64
M106 S0
M106 P2 S0
;TYPE:Custom
PRINT_START BED_TEMP=60 NOZZLE_TEMP_T0=220 INITIAL_EXTRUDER=0 TOTAL_LAYER=175 BED_TYPE="High Temp Plate"
G90
G21
M83 ; use relative distances for extrusion
;===== date: 20251213=====================
; Change Tool-1 -> Tool0 (layer -1)
G91
G1 Z1.5 F1800
G90
G1 F21000
M400
T0
G90

;_FORCE_RESUME_FAN_SPEED
; Filament gcode
M109 S220 T0 ; set nozzle temperature and wait for it to be reached
SET_PRESSURE_ADVANCE ADVANCE=0.02; Override pressure advance value
G1 Z.25 F30000
M106 S0
M106 P2 S0
;LAYER_CHANGE
;Z:0.25
;HEIGHT:0.25
;BEFORE_LAYER_CHANGE
;0.25
G92 E0
TIMELAPSE_TAKE_FRAME
DEFECT_DETECTION_DETECT
;AFTER_LAYER_CHANGE
;0.25
SET_PRINT_STATS_INFO TOTAL_LAYER=175 CURRENT_LAYER=1
;_SET_FAN_SPEED_CHANGING_LAYER
SET_VELOCITY_LIMIT ACCEL=500 ACCEL_TO_DECEL=250
; printing object calicat.drc id:1 copy 0
G1 E-1.5 F1800
EXCLUDE_OBJECT_START NAME=calicat.drc_id_1_copy_0
G1 X129.493 Y125.102 F30000
G1 Z.65
G1 Z.25
G1 E1.5 F1800
;TYPE:Inner wall
;WIDTH:0.499999
;HEIGHT:0.25
G1 F3000
G1 X129.493 Y117.848 E.32979
G1 X135.747 Y117.848 E.28432
G1 X135.747 Y125.102 E.32979
G1 X129.533 Y125.102 E.2825
G1 X129.02 Y125.575 F30000
;TYPE:Outer wall
G1 F2400
G1 X129.02 Y117.375 E.37281
G1 X136.22 Y117.375 E.32735
G1 X136.22 Y125.575 E.37281
G1 X129.06 Y125.575 E.32553
;WIPE_START
G1 X129.051 Y123.575 E-1.5
;WIPE_END
G1 X135.275 Y119.157 Z.65 F30000
G1 X135.613 Y118.917 Z.65
G1 Z.25
G1 E1.5 F1800
;TYPE:Bottom surface
;WIDTH:0.515425
G1 F6300
G1 X134.879 Y118.183 E.04883
G1 X134.226 Y118.183 E.03072
G1 X135.412 Y119.369 E.07891
G1 X135.412 Y120.022 E.03072
G1 X133.573 Y118.183 E.12235
G1 X132.92 Y118.183 E.03072
G1 X135.412 Y120.675 E.16579
G1 X135.412 Y121.328 E.03072
G1 X132.267 Y118.183 E.20923
G1 X131.614 Y118.183 E.03072
G1 X135.412 Y121.982 E.25267
G1 X135.412 Y122.635 E.03072
G1 X130.961 Y118.183 E.29611
G1 X130.308 Y118.183 E.03072
G1 X135.412 Y123.288 E.33955
G1 X135.412 Y123.941 E.03072
G1 X129.828 Y118.357 E.37145
G1 X129.828 Y119.01 E.03072
G1 X135.412 Y124.594 E.37145
G1 X135.412 Y124.767 E.00816
G1 X134.933 Y124.767 E.02256
G1 X129.828 Y119.663 E.33955
G1 X129.828 Y120.316 E.03072
G1 X134.28 Y124.767 E.29611
G1 X133.627 Y124.767 E.03072
G1 X129.828 Y120.969 E.25267
G1 X129.828 Y121.622 E.03072
G1 X132.974 Y124.767 E.20923
G1 X132.321 Y124.767 E.03072
G1 X129.828 Y122.275 E.16579
G1 X129.828 Y122.928 E.03072
G1 X131.667 Y124.767 E.12235
G1 X131.014 Y124.767 E.03072
G1 X129.828 Y123.581 E.07891
G1 X129.828 Y124.234 E.03072
G1 X130.562 Y124.968 E.04883
G1 E-.92857 F1800
;WIPE_START
G1 F6300
G1 X129.828 Y124.234 E-.2966
G1 X129.828 Y123.581 E-.18659
G1 X130.047 Y123.799 E-.08825
;WIPE_END
G1 X123.747 Y125.102 Z.65 F30000
G1 Z.25
G1 E1.5 F1800
;TYPE:Inner wall
;WIDTH:0.499999
G1 F3000
G1 X117.493 Y125.102 E.28432
G1 X117.493 Y117.848 E.32979
G1 X123.747 Y117.848 E.28432
G1 X123.747 Y125.062 E.32797
G1 X124.22 Y125.575 F30000
;TYPE:Outer wall
G1 F2400
M73 P0 R63
G1 X117.02 Y125.575 E.32735
G1 X117.02 Y117.375 E.37281
G1 X124.22 Y117.375 E.32735
G1 X124.22 Y125.535 E.37099
;WIPE_START
G1 X122.22 Y125.546 E-1.5
;WIPE_END
G1 X123.613 Y118.917 Z.65 F30000
G1 Z.25
G1 E1.5 F1800
;TYPE:Bottom surface
;WIDTH:0.515425
G1 F6300
G1 X122.879 Y118.183 E.04883
G1 X122.226 Y118.183 E.03072
G1 X123.412 Y119.369 E.07891
G1 X123.412 Y120.022 E.03072
G1 X121.573 Y118.183 E.12235
G1 X120.92 Y118.183 E.03072
G1 X123.412 Y120.675 E.16579
G1 X123.412 Y121.328 E.03072
G1 X120.267 Y118.183 E.20923
G1 X119.614 Y118.183 E.03072
M104 S220 T1 ; preheat T1 time: 30s
G1 X123.412 Y121.982 E.25267
G1 X123.412 Y122.635 E.03072
G1 X118.961 Y118.183 E.29611
G1 X118.308 Y118.183 E.03072
G1 X123.412 Y123.288 E.33956
G1 X123.412 Y123.941 E.03072
G1 X117.828 Y118.357 E.37145
G1 X117.828 Y119.01 E.03072
G1 X123.412 Y124.594 E.37145
G1 X123.412 Y124.767 E.00816
G1 X122.933 Y124.767 E.02256
G1 X117.828 Y119.663 E.33955
G1 X117.828 Y120.316 E.03072
G1 X122.28 Y124.767 E.29611
G1 X121.627 Y124.767 E.03072
G1 X117.828 Y120.969 E.25267
G1 X117.828 Y121.622 E.03072
G1 X120.974 Y124.767 E.20923
G1 X120.321 Y124.767 E.03072
G1 X117.828 Y122.275 E.16579
G1 X117.828 Y122.928 E.03072
G1 X119.667 Y124.767 E.12235
G1 X119.014 Y124.767 E.03072
G1 X117.828 Y123.581 E.07891
G1 X117.828 Y124.234 E.03072
G1 X118.562 Y124.968 E.04883
G1 E-.92857 F1800
;WIPE_START
G1 F6300
G1 X117.828 Y124.234 E-.29659
G1 X117.828 Y123.581 E-.18659
G1 X118.047 Y123.799 E-.08825
;WIPE_END
G1 X121.451 Y130.63 Z.65 F30000
G1 X124.993 Y137.739 Z.65
G1 Z.25
G1 E1.5 F1800
;TYPE:Inner wall
;WIDTH:0.499999
G1 F3000
G1 X124.993 Y137.653 E.00391
G1 X124.813 Y137.315 E.01742
G1 X124.617 Y137.169 E.01112
G1 X124.324 Y137.102 E.01366
G1 X117.493 Y137.102 E.31055
G1 X117.493 Y129.848 E.32979
G1 X123.747 Y129.848 E.28432
G1 X123.747 Y134.308 E.20278
G1 X123.873 Y134.569 E.01317
G1 X124.08 Y134.758 E.01274
G1 X124.417 Y134.848 E.01583
G1 X128.824 Y134.848 E.20038
G1 X129.16 Y134.758 E.01583
G1 X129.368 Y134.569 E.01274
G2 X129.493 Y134.179 I-.544 J-.391 E.01896
G1 X129.493 Y129.848 E.19688
G1 X135.747 Y129.848 E.28432
G1 X135.747 Y137.102 E.32979
G1 X128.917 Y137.102 E.31055
G1 X128.624 Y137.169 E.01366
G2 X128.247 Y137.771 I.344 J.634 E.03376
G1 X128.247 Y144.602 E.31055
G1 X120.333 Y144.602 E.35982
G1 X120.333 Y141.348 E.14793
G1 X124.324 Y141.348 E.18145
G1 X124.59 Y141.293 E.01235
G2 X124.993 Y140.679 I-.333 J-.659 E.03499
G1 X124.993 Y137.779 E.13184
G1 X124.52 Y137.771 F30000
;TYPE:Outer wall
G1 F2400
G1 X124.467 Y137.637 E.00654
G1 X124.324 Y137.575 E.00712
G1 X117.02 Y137.575 E.33206
G1 X117.02 Y129.375 E.37281
G1 X124.22 Y129.375 E.32735
G1 X124.22 Y134.179 E.2184
G1 X124.257 Y134.293 E.00547
G1 X124.417 Y134.375 E.00815
G1 X128.824 Y134.375 E.20038
G1 X128.983 Y134.293 E.00815
G1 X129.02 Y134.179 E.00547
G1 X129.02 Y129.375 E.2184
G1 X136.22 Y129.375 E.32735
G1 X136.22 Y137.575 E.37281
G1 X128.917 Y137.575 E.33206
G1 X128.773 Y137.637 E.00712
G1 X128.72 Y137.771 E.00654
G1 X128.72 Y145.075 E.33206
G1 X119.86 Y145.075 E.40284
G1 X119.86 Y140.875 E.19095
G1 X124.324 Y140.875 E.20296
G1 X124.463 Y140.818 E.00683
G1 X124.52 Y140.679 E.00683
G1 X124.52 Y137.811 E.13036
;WIPE_START
G1 X124.467 Y137.637 E-.13632
G1 X124.324 Y137.575 E-.11742
G1 X122.662 Y137.575 E-1.24626
;WIPE_END
G1 X129.444 Y134.073 Z.65 F30000
G1 X135.613 Y130.886 Z.65
G1 Z.25
G1 E1.5 F1800
;TYPE:Bottom surface
;WIDTH:0.500805
G1 F6300
G1 X134.91 Y130.183 E.04529
G1 X134.278 Y130.183 E.0288
G1 X135.412 Y131.318 E.07309
G1 X135.412 Y131.95 E.0288
G1 X133.645 Y130.183 E.11382
G1 X133.013 Y130.183 E.0288
G1 X135.412 Y132.582 E.15455
G1 X135.412 Y133.215 E.0288
G1 X132.381 Y130.183 E.19529
G1 X131.748 Y130.183 E.0288
G1 X135.412 Y133.847 E.23602
G1 X135.412 Y134.48 E.0288
G1 X131.116 Y130.183 E.27675
G1 X130.483 Y130.183 E.0288
G1 X135.412 Y135.112 E.31748
G1 X135.412 Y135.744 E.0288
G1 X129.851 Y130.183 E.35822
G1 X129.828 Y130.183 E.00104
G1 X129.828 Y130.792 E.02776
G1 X135.412 Y136.377 E.35969
G1 X135.412 Y136.767 E.01779
G1 X135.171 Y136.767 E.01101
G1 X129.828 Y131.425 E.34412
G1 X129.828 Y132.057 E.0288
G1 X134.538 Y136.767 E.30339
G1 X133.906 Y136.767 E.0288
G1 X129.828 Y132.69 E.26267
G1 X129.828 Y133.322 E.0288
G1 X133.274 Y136.768 E.22194
G1 X132.642 Y136.768 E.0288
G1 X129.828 Y133.954 E.18121
G3 X129.76 Y134.519 I-1.467 J.109 E.02605
G1 X132.009 Y136.768 E.14488
G1 X131.377 Y136.768 E.0288
G1 X129.502 Y134.893 E.12078
G1 X129.327 Y135.051 E.01074
G1 X129.092 Y135.115 E.01112
G1 X130.745 Y136.768 E.10648
G1 X130.112 Y136.768 E.0288
G1 X128.527 Y135.183 E.10211
G1 X127.895 Y135.183 E.02881
G1 X129.48 Y136.768 E.10213
G1 X128.85 Y136.77 E.02872
G1 X127.262 Y135.183 E.10225
G1 X126.63 Y135.182 E.02881
G1 X128.383 Y136.936 E.11294
G2 X128.068 Y137.253 I.288 J.6 E.02077
G1 X125.997 Y135.182 E.13341
G1 X125.365 Y135.182 E.02881
G1 X127.916 Y137.733 E.16434
G1 X127.912 Y138.362 E.02864
G1 X124.531 Y134.981 E.21779
G1 E-.92857 F1800
;WIPE_START
G1 F6300
G1 X125.945 Y136.395 E-.57143
;WIPE_END
G1 X123.613 Y130.901 Z.65 F30000
G1 Z.25
G1 E1.5 F1800
G1 F6300
G1 X122.895 Y130.183 E.04626
G1 X122.263 Y130.183 E.0288
G1 X123.412 Y131.333 E.07406
G1 X123.412 Y131.965 E.0288
G1 X121.63 Y130.183 E.11479
G1 X120.998 Y130.183 E.0288
G1 X123.412 Y132.597 E.15552
G1 X123.412 Y133.23 E.0288
G1 X120.365 Y130.183 E.19626
G1 X119.733 Y130.183 E.0288
G1 X123.613 Y134.063 E.24993
G1 E-.92857 F1800
;WIPE_START
G1 F6300
G1 X122.199 Y132.649 E-.57143
;WIPE_END
G1 X118.9 Y129.982 Z.65 F30000
G1 Z.25
G1 E1.5 F1800
G1 F6300
G1 X127.912 Y138.995 E.58052
G1 X127.912 Y139.627 E.0288
G1 X118.468 Y130.183 E.60831
G1 X117.836 Y130.183 E.0288
G1 X124.427 Y136.774 E.42455
G3 X125.059 Y137.084 I-.177 J1.158 E.03254
G1 X125.235 Y137.346 E.0144
G3 X125.317 Y137.664 I-.679 J.344 E.01503
G1 X127.912 Y140.259 E.1672
G1 X127.912 Y140.892 E.0288
G1 X125.328 Y138.308 E.16645
G1 X125.328 Y138.94 E.0288
G1 X127.912 Y141.524 E.16645
G1 X127.912 Y142.156 E.0288
G1 X125.328 Y139.572 E.16645
G1 X125.328 Y140.205 E.0288
G1 X127.912 Y142.789 E.16645
G1 X127.912 Y143.421 E.0288
G1 X125.316 Y140.825 E.16724
G3 X125.122 Y141.263 I-.997 J-.179 E.02204
G1 X127.912 Y144.054 E.17974
G1 X127.912 Y144.267 E.00973
G1 X127.494 Y144.267 E.01908
G1 X124.786 Y141.56 E.17439
G1 X124.727 Y141.6 E.00326
G3 X124.277 Y141.683 I-.449 J-1.174 E.02096
G1 X126.861 Y144.267 E.16645
G1 X126.229 Y144.267 E.0288
G1 X123.645 Y141.683 E.16645
G1 X123.012 Y141.683 E.0288
G1 X125.596 Y144.267 E.16645
G1 X124.964 Y144.267 E.0288
G1 X122.38 Y141.683 E.16645
G1 X121.748 Y141.683 E.0288
G1 X124.332 Y144.267 E.16645
G1 X123.699 Y144.267 E.0288
G1 X121.115 Y141.683 E.16645
G1 X120.668 Y141.683 E.02038
G1 X120.668 Y141.868 E.00842
G1 X123.067 Y144.267 E.15454
G1 X122.435 Y144.267 E.0288
G1 X120.668 Y142.5 E.11381
G1 X120.668 Y143.133 E.0288
G1 X121.802 Y144.267 E.07308
G1 X121.17 Y144.267 E.0288
G1 X120.467 Y143.564 E.04528
G1 E-.92857 F1800
;WIPE_START
G1 F6300
G1 X121.17 Y144.267 E-.28406
G1 X121.802 Y144.267 E-.18068
G1 X121.538 Y144.003 E-.10669
;WIPE_END
G1 X123.99 Y136.969 Z.65 F30000
G1 Z.25
G1 E1.5 F1800
G1 F6300
G1 X117.828 Y130.808 E.39688
G1 X117.828 Y131.44 E.0288
G1 X123.156 Y136.768 E.3432
G1 X122.524 Y136.768 E.02881
G1 X117.828 Y132.072 E.30246
G1 X117.828 Y132.705 E.0288
G1 X121.891 Y136.768 E.26172
G1 X121.259 Y136.768 E.02881
G1 X117.828 Y133.337 E.22098
G1 X117.828 Y133.969 E.0288
G1 X120.626 Y136.768 E.18024
G1 X119.994 Y136.768 E.02881
G1 X117.828 Y134.602 E.1395
G1 X117.828 Y135.234 E.0288
G1 X119.361 Y136.767 E.09876
G1 X118.729 Y136.767 E.02881
G1 X117.828 Y135.867 E.05802
G1 X117.828 Y136.499 E.0288
G1 X118.297 Y136.968 E.03022
; stop printing object calicat.drc id:1 copy 0
G1 E-.92857 F1800
;WIPE_START
G1 F6300
G1 X117.828 Y136.499 E-.18958
G1 X117.828 Y135.867 E-.18068
G1 X118.326 Y136.364 E-.20117
;WIPE_END
EXCLUDE_OBJECT_END NAME=calicat.drc_id_1_copy_0
G1 Z.65 F30000
G1 X183.097 Y199.676 Z.65
G1 Z.25
G1 E1.5 F1800
;HEIGHT:0.25
;TYPE:Prime tower
;WIDTH:0.5
;--------------------
; CP TOOLCHANGE START
; toolchange #1
; material : PLA -> PLA
;--------------------
; WIPE_TOWER_START
M220 S100
; CP TOOLCHANGE UNLOAD
;WIDTH:1
G1  X182.597 Y199.176  
SET_PRESSURE_ADVANCE ADVANCE=0
G1 F10144
G1  X180.484  E0.2079
;WIDTH:0.5
G1  Y198.426  F2400
G4 S0
G1 E-10 F1800
; filament end gcode
M104 S70 T0 ; set nozzle temperature ;cooldown
G17
G3 Z.65 I1.217 J0 P1  F30000
M73 P1 R63
;===== date: 20251213=====================
; Change Tool0 -> Tool1 (layer 0)
G91
G1 Z1.5 F1800
G90
G1 F21000

; 0
M109 S220 T1
M400
T1
SM_PRINT_PREEXTRUDE_FILAMENT INDEX=1
G90

M106 P2 S0
M106 S0
; Filament gcode
M109 S220 T1 ; set nozzle temperature and wait for it to be reached
SET_PRESSURE_ADVANCE ADVANCE=0.02; Override pressure advance value

G1  X183.097 Y199.676 F30000
G1  X180.483 Y198.426  
G1 Z.25
G4 S0
G1  Y198.926 
; CP TOOLCHANGE WIPE
;WIDTH:0.5
G1  X148.597  E1.4793 F990
G1  X149.347 Y198.426   E0.0418
G1  X183.097  E1.5658 F1125
G1  X182.347 Y197.926   E0.0418
G1  X149.347  E1.5310 F1374
;WIDTH:0.5
; WIPE_TOWER_END
G1 F30000
G4 S0
G92 E0
; CP TOOLCHANGE END
;------------------


G1  X148.847 Y196.426   F7200
;HEIGHT:0.25
;TYPE:Prime tower
;WIDTH:0.5
G1  X182.847  E1.5774 F3000
G1  Y197.426  E0.0464
G1  X148.847  E1.5774
G1  Y196.426  E0.0464
G1  X182.847 
G1  Y197.426 
G1  X183.347 Y196.987  
G1  Y198.865  E0.0871
G1  Y198.870   E0.0002
G1  X183.348 Y198.874   E0.0002
G1  Y198.878   E0.0002
G1  X183.350 Y198.883   E0.0002
G1  X183.351 Y198.887   E0.0002
G1  X183.353 Y198.891   E0.0002
G1  X183.355 Y198.895   E0.0002
G1  X183.357 Y198.899   E0.0002
G1  X183.360 Y198.902   E0.0002
G1  X183.362 Y198.906   E0.0002
G1  X183.366 Y198.909   E0.0002
G1  X183.369 Y198.912   E0.0002
G1  X183.372 Y198.915   E0.0002
G1  X183.376 Y198.917   E0.0002
G1  X183.380 Y198.919   E0.0002
G1  X183.384 Y198.921   E0.0002
G1  X183.388 Y198.923   E0.0002
G1  X183.392 Y198.924   E0.0002
G1  X183.397 Y198.925   E0.0002
G1  X183.401 Y198.926   E0.0002
G1  X183.406   E0.0003
G1  X183.411 Y198.927   E0.0002
G1  X183.415 Y198.928   E0.0002
G1  X183.419 Y198.929   E0.0002
G1  X183.423 Y198.931   E0.0002
G1  X183.427 Y198.933   E0.0002
G1  X183.430 Y198.935   E0.0002
G1  X183.434 Y198.937   E0.0002
G1  X183.437 Y198.940   E0.0002
G1  X183.440 Y198.943   E0.0002
G1  X183.443 Y198.946   E0.0002
G1  X183.445 Y198.950   E0.0002
G1  X183.448 Y198.954   E0.0002
G1  X183.450 Y198.957   E0.0002
G1  X183.451 Y198.961   E0.0002
G1  X183.453 Y198.965   E0.0002
G1  X183.454 Y198.970   E0.0002
G1  Y198.974   E0.0002
G1  X183.455 Y198.978   E0.0002
G1  Y198.982  E0.0002
G1  X183.454 Y198.987   E0.0002
G1  X183.342 Y199.973   E0.0461
G1  X183.330 Y200.047   E0.0035
G1  X183.313 Y200.120   E0.0035
G1  X183.290 Y200.191   E0.0035
G1  X183.262 Y200.260   E0.0035
G1  X183.228 Y200.327   E0.0035
G1  X183.189 Y200.391   E0.0035
G1  X183.146 Y200.452   E0.0035
G1  X183.097 Y200.509   E0.0035
G1  X183.045 Y200.562   E0.0035
G1  X182.988 Y200.611   E0.0035
G1  X182.928 Y200.655   E0.0035
G1  X182.864 Y200.694   E0.0035
G1  X182.798 Y200.728   E0.0035
G1  X182.729 Y200.757   E0.0035
G1  X182.658 Y200.781   E0.0035
G1  X182.585 Y200.799   E0.0035
G1  X182.511 Y200.810   E0.0035
G1  X182.437 Y200.817   E0.0035
G1  X182.362   E0.0035
G1  X182.287 Y200.811   E0.0035
G1  X174.540 Y199.926   E0.3618
G1  X157.154  E0.8066
G1  X149.407 Y200.811   E0.3618
G1  X149.332 Y200.817   E0.0035
G1  X149.257   E0.0035
G1  X149.183 Y200.810   E0.0035
G1  X149.109 Y200.798   E0.0035
G1  X149.036 Y200.781   E0.0035
G1  X148.965 Y200.757   E0.0035
G1  X148.896 Y200.728   E0.0035
G1  X148.830 Y200.694   E0.0035
G1  X148.766 Y200.655   E0.0035
G1  X148.706 Y200.611   E0.0035
G1  X148.649 Y200.562   E0.0035
G1  X148.597 Y200.509   E0.0035
G1  X148.548 Y200.452   E0.0035
